Newaita-dark/apps/16/words.svg

<svg height="16" viewBox="0 0 16 16" width="16" xmlns="http://www.w3.org/2000/svg" xmlns:xlink="http://www.w3.org/1999/xlink"><linearGradient id="a" gradientTransform="matrix(.0372059 0 0 .031253 -1.315168 6.719393)" gradientUnits="userSpaceOnUse" x1="254" x2="254" y1="233.5" y2="254.666672"><stop offset="0" stop-opacity=".27451"/><stop offset="1" stop-opacity="0"/></linearGradient><linearGradient id="b"><stop offset="0" stop-opacity=".313726"/><stop offset=".222222" stop-opacity=".27451"/><stop offset="1" stop-opacity="0"/></linearGradient><radialGradient id="c" cx="450.908936" cy="189.579361" gradientTransform="matrix(.00000009 -.0390662 -.0703192 -.00000005 25.238424 31.797666)" gradientUnits="userSpaceOnUse" r="21.166656" xlink:href="#b"/><radialGradient id="d" cx="450.908936" cy="189.579361" gradientTransform="matrix(-.00000009 .0390662 .0703192 .00000005 -9.361907 -3.763739)" gradientUnits="userSpaceOnUse" r="21.166656" xlink:href="#b"/><radialGradient id="e" cx="450.908936" cy="189.579361" gradientTransform="matrix(-.00000009 -.0390662 .0703192 -.00000005 -9.361907 31.797666)" gradientUnits="userSpaceOnUse" r="21.166656" xlink:href="#b"/><radialGradient id="f" cx="450.908936" cy="189.579361" gradientTransform="matrix(.00000009 .0390662 -.0703192 .00000005 25.238423 -3.76374)" gradientUnits="userSpaceOnUse" r="21.166656" xlink:href="#b"/><linearGradient id="g" gradientUnits="userSpaceOnUse" x1="7.938262" x2="7.938262" y1="14.0169665" y2="1.44805149998"><stop offset="0" stop-color="#e0e0e0"/><stop offset="1" stop-color="#eee"/></linearGradient><linearGradient id="h"><stop offset="0" stop-color="#81c784"/><stop offset="1" stop-color="#66bb6a"/></linearGradient><linearGradient id="i" gradientUnits="userSpaceOnUse" x1="12.92974798041" x2="12.92974798041" xlink:href="#h" y1="-8.11646094882" y2="4.4524535824"/><linearGradient id="j" gradientUnits="userSpaceOnUse" x1="8.59978462503" x2="8.59978462503" xlink:href="#h" y1="4.17682962501" y2="11.12280862498"/><path d="m3.804688 14.015625h8.269531v.664063h-8.269531zm0 0" fill="url(#a)"/><path d="m12.074219 14.015625h1.320312v-.660156h-1.320312zm0 0" fill="url(#c)"/><path d="m3.804688 14.015625h-1.324219v.664063h1.324219zm0 0" fill="url(#d)"/><path d="m3.804688 14.015625h-1.324219v-.660156h1.324219zm0 0" fill="url(#e)"/><path d="m12.074219 14.015625h1.320312v.664063h-1.320312zm0 0" fill="url(#f)"/><path d="m9.953125 1.449219h-6.644531c-.367188 0-.664063.292969-.664063.660156v11.246094c0 .367187.296875.660156.664063.660156h9.261718c.363282 0 .660157-.292969.660157-.660156v-8.902344zm0 0" fill="url(#g)"/><path d="m9.953125 1.449219 3.277344 3.003906v-2.34375c0-.367187-.296875-.660156-.660157-.660156zm0 0" fill="url(#i)"/><path d="m2.644531 13.191406v.164063c0 .367187.296875.660156.664063.660156h9.261718c.363282 0 .660157-.292969.660157-.660156v-.164063c0 .363282-.296875.660156-.660157.660156h-9.261718c-.367188 0-.664063-.296874-.664063-.660156zm0 0" fill-opacity=".235294"/><path d="m3.308594 1.449219c-.367188 0-.664063.292969-.664063.660156v.332031c0-.367187.296875-.664062.664063-.664062h6.644531l3.277344 3.007812v-.332031l-3.277344-3.003906zm0 0" fill="#fff"/><path d="m9.953125 1.449219.359375.328125h2.257812c.363282 0 .660157.296875.660157.664062v-.332031c0-.367187-.296875-.660156-.660157-.660156zm0 0" fill="#fff" fill-opacity=".392157"/><path d="m9.953125 1.449219 3.277344 3.003906v-.277344l-2.976563-2.726562zm0 0" fill-opacity=".235294"/><path d="m1203.664647 175.258863h-803.545355c-44.405211 0-80.307296 35.42969-80.307296 79.8349v1360.027676c0 44.405211 35.902085 79.8349 80.307296 79.8349h1120.05058c43.932814 0 79.8349-35.429689 79.8349-79.8349v-1076.590161zm0 0" fill="none" stroke="#212121" stroke-linecap="round" stroke-linejoin="round" stroke-width="11.338583" transform="scale(.00826902)"/><path d="m318.469588-168.629428 104.864986 96.115821v-74.992838c0-11.748878-9.499093-21.122983-21.122983-21.122983zm0 0" fill="none" stroke="#212121" stroke-linecap="round" stroke-linejoin="round" stroke-width="3" transform="matrix(.031253 0 0 .031253 0 6.719392)"/><path d="m5.125 5.664062.828125 4.960938h.660156l.996094-4.464844.992187 4.464844h.660157c1.15625-1.984375 1.488281-4.132812 1.488281-5.785156l-.992188.164062c0 1.488282-.019531 3.304688-.660156 4.796875l-.992187-4.632812-.664063.167969-.992187 4.464843-.828125-3.96875.496094-.664062zm0 0" fill="url(#j)"/><path d="m10.75 4.878906-.992188.167969c0 1.488281-.019531 3.304687-.660156 4.792969l-.992187-4.628906-.664063.164062-.992187 4.464844-.800781-3.839844-.027344.039062.828125 3.96875.992187-4.464843.664063-.167969.992187 4.632812c.640625-1.492187.660156-3.308593.660156-4.796874l.992188-.164063c0-.058594 0-.113281 0-.167969zm-4.632812.332032-.992188.496093.027344.152344.769531-.382813zm0 0" fill="#fff" fill-opacity=".470588"/><path d="m10.75 5.167969h-.003906c-.042969 1.605469-.402344 3.605469-1.484375 5.457031h-.660157l-.992187-4.464844-.996094 4.464844h-.660156l-.777344-4.65625-.050781.027344.828125 4.960937h.660156l.996094-4.464843.992187 4.464843h.660157c1.15625-1.984375 1.488281-4.132812 1.488281-5.789062zm-4.632812.332031-.394532.199219-.101562.132812.054687.257813zm0 0" fill-opacity=".235294"/><path d="m163.98434-33.767307 26.49747 158.734842h21.122983l31.871956-142.861358 31.746968 142.861358h21.122983c36.996467-63.493937 47.620453-132.237372 47.620453-185.107323l-31.746969 5.249498c0 47.620453-.62494 105.739903-21.122982 153.485343l-31.746969-148.235844-21.247971 5.374487-31.746968 142.861357-26.49747-126.987873 15.873485-21.247971zm0 0" fill="none" stroke="#212121" stroke-linecap="round" stroke-linejoin="round" stroke-width="3" transform="matrix(.031253 0 0 .031253 0 6.719392)"/></svg>

<?xml version="1.0" encoding="UTF-8"?>
<svg xmlns="http://www.w3.org/2000/svg" xmlns:xlink="http://www.w3.org/1999/xlink" width="16px" height="16px" viewBox="0 0 16 16" version="1.1">
<defs>
<linearGradient id="linear0" gradientUnits="userSpaceOnUse" x1="254" y1="233.5" x2="254" y2="254.666672" gradientTransform="matrix(0.0372059,0,0,0.031253,-1.315168,6.719393)">
<stop offset="0" style="stop-color:rgb(0%,0%,0%);stop-opacity:0.27451;"/>
<stop offset="1" style="stop-color:rgb(0%,0%,0%);stop-opacity:0;"/>
</linearGradient>
<radialGradient id="radial0" gradientUnits="userSpaceOnUse" cx="450.908936" cy="189.579361" fx="450.908936" fy="189.579361" r="21.166656" gradientTransform="matrix(0.0000000870852,-0.0390662,-0.0703192,-0.0000000507693,25.238424,31.797666)">
<stop offset="0" style="stop-color:rgb(0%,0%,0%);stop-opacity:0.313726;"/>
<stop offset="0.222222" style="stop-color:rgb(0%,0%,0%);stop-opacity:0.27451;"/>
<stop offset="1" style="stop-color:rgb(0%,0%,0%);stop-opacity:0;"/>
</radialGradient>
<radialGradient id="radial1" gradientUnits="userSpaceOnUse" cx="450.908936" cy="189.579361" fx="450.908936" fy="189.579361" r="21.166656" gradientTransform="matrix(-0.0000000870852,0.0390662,0.0703192,0.0000000507693,-9.361907,-3.763739)">
<stop offset="0" style="stop-color:rgb(0%,0%,0%);stop-opacity:0.313726;"/>
<stop offset="0.222222" style="stop-color:rgb(0%,0%,0%);stop-opacity:0.27451;"/>
<stop offset="1" style="stop-color:rgb(0%,0%,0%);stop-opacity:0;"/>
</radialGradient>
<radialGradient id="radial2" gradientUnits="userSpaceOnUse" cx="450.908936" cy="189.579361" fx="450.908936" fy="189.579361" r="21.166656" gradientTransform="matrix(-0.0000000870852,-0.0390662,0.0703192,-0.0000000507693,-9.361907,31.797666)">
<stop offset="0" style="stop-color:rgb(0%,0%,0%);stop-opacity:0.313726;"/>
<stop offset="0.222222" style="stop-color:rgb(0%,0%,0%);stop-opacity:0.27451;"/>
<stop offset="1" style="stop-color:rgb(0%,0%,0%);stop-opacity:0;"/>
</radialGradient>
<radialGradient id="radial3" gradientUnits="userSpaceOnUse" cx="450.908936" cy="189.579361" fx="450.908936" fy="189.579361" r="21.166656" gradientTransform="matrix(0.0000000870852,0.0390662,-0.0703192,0.0000000507693,25.238423,-3.76374)">
<stop offset="0" style="stop-color:rgb(0%,0%,0%);stop-opacity:0.313726;"/>
<stop offset="0.222222" style="stop-color:rgb(0%,0%,0%);stop-opacity:0.27451;"/>
<stop offset="1" style="stop-color:rgb(0%,0%,0%);stop-opacity:0;"/>
</radialGradient>
<linearGradient id="linear1" gradientUnits="userSpaceOnUse" x1="254" y1="233.5" x2="254" y2="-168.666672" gradientTransform="matrix(0.031253,0,0,0.031253,0,6.719391)">
<stop offset="0" style="stop-color:rgb(87.843138%,87.843138%,87.843138%);stop-opacity:1;"/>
<stop offset="1" style="stop-color:rgb(93.333334%,93.333334%,93.333334%);stop-opacity:1;"/>
</linearGradient>
<linearGradient id="linear2" gradientUnits="userSpaceOnUse" x1="413.712219" y1="-474.701691" x2="413.712219" y2="-72.535034" gradientTransform="matrix(0.031253,0,0,0.031253,0,6.719391)">
<stop offset="0" style="stop-color:rgb(50.588238%,78.039217%,51.764709%);stop-opacity:1;"/>
<stop offset="1" style="stop-color:rgb(40.000001%,73.333335%,41.568628%);stop-opacity:1;"/>
</linearGradient>
<linearGradient id="linear3" gradientUnits="userSpaceOnUse" x1="280.458344" y1="-89.291664" x2="280.458344" y2="132.958328" gradientTransform="matrix(0.031253,0,0,0.031253,-0.16538,6.967462)">
<stop offset="0" style="stop-color:rgb(50.588238%,78.039217%,51.764709%);stop-opacity:1;"/>
<stop offset="1" style="stop-color:rgb(40.000001%,73.333335%,41.568628%);stop-opacity:1;"/>
</linearGradient>
</defs>
<g id="surface1">
<path style=" stroke:none;fill-rule:nonzero;fill:url(#linear0);" d="M 3.804688 14.015625 L 12.074219 14.015625 L 12.074219 14.679688 L 3.804688 14.679688 Z M 3.804688 14.015625 "/>
<path style=" stroke:none;fill-rule:nonzero;fill:url(#radial0);" d="M 12.074219 14.015625 L 13.394531 14.015625 L 13.394531 13.355469 L 12.074219 13.355469 Z M 12.074219 14.015625 "/>
<path style=" stroke:none;fill-rule:nonzero;fill:url(#radial1);" d="M 3.804688 14.015625 L 2.480469 14.015625 L 2.480469 14.679688 L 3.804688 14.679688 Z M 3.804688 14.015625 "/>
<path style=" stroke:none;fill-rule:nonzero;fill:url(#radial2);" d="M 3.804688 14.015625 L 2.480469 14.015625 L 2.480469 13.355469 L 3.804688 13.355469 Z M 3.804688 14.015625 "/>
<path style=" stroke:none;fill-rule:nonzero;fill:url(#radial3);" d="M 12.074219 14.015625 L 13.394531 14.015625 L 13.394531 14.679688 L 12.074219 14.679688 Z M 12.074219 14.015625 "/>
<path style=" stroke:none;fill-rule:nonzero;fill:url(#linear1);" d="M 9.953125 1.449219 L 3.308594 1.449219 C 2.941406 1.449219 2.644531 1.742188 2.644531 2.109375 L 2.644531 13.355469 C 2.644531 13.722656 2.941406 14.015625 3.308594 14.015625 L 12.570312 14.015625 C 12.933594 14.015625 13.230469 13.722656 13.230469 13.355469 L 13.230469 4.453125 Z M 9.953125 1.449219 "/>
<path style=" stroke:none;fill-rule:nonzero;fill:url(#linear2);" d="M 9.953125 1.449219 L 13.230469 4.453125 L 13.230469 2.109375 C 13.230469 1.742188 12.933594 1.449219 12.570312 1.449219 Z M 9.953125 1.449219 "/>
<path style=" stroke:none;fill-rule:nonzero;fill:rgb(0%,0%,0%);fill-opacity:0.235294;" d="M 2.644531 13.191406 L 2.644531 13.355469 C 2.644531 13.722656 2.941406 14.015625 3.308594 14.015625 L 12.570312 14.015625 C 12.933594 14.015625 13.230469 13.722656 13.230469 13.355469 L 13.230469 13.191406 C 13.230469 13.554688 12.933594 13.851562 12.570312 13.851562 L 3.308594 13.851562 C 2.941406 13.851562 2.644531 13.554688 2.644531 13.191406 Z M 2.644531 13.191406 "/>
<path style=" stroke:none;fill-rule:nonzero;fill:rgb(100%,100%,100%);fill-opacity:1;" d="M 3.308594 1.449219 C 2.941406 1.449219 2.644531 1.742188 2.644531 2.109375 L 2.644531 2.441406 C 2.644531 2.074219 2.941406 1.777344 3.308594 1.777344 L 9.953125 1.777344 L 13.230469 4.785156 L 13.230469 4.453125 L 9.953125 1.449219 Z M 3.308594 1.449219 "/>
<path style=" stroke:none;fill-rule:nonzero;fill:rgb(100%,100%,100%);fill-opacity:0.392157;" d="M 9.953125 1.449219 L 10.3125 1.777344 L 12.570312 1.777344 C 12.933594 1.777344 13.230469 2.074219 13.230469 2.441406 L 13.230469 2.109375 C 13.230469 1.742188 12.933594 1.449219 12.570312 1.449219 Z M 9.953125 1.449219 "/>
<path style=" stroke:none;fill-rule:nonzero;fill:rgb(0%,0%,0%);fill-opacity:0.235294;" d="M 9.953125 1.449219 L 13.230469 4.453125 L 13.230469 4.175781 L 10.253906 1.449219 Z M 9.953125 1.449219 "/>
<path style="fill:none;stroke-width:11.338583;stroke-linecap:round;stroke-linejoin:round;stroke:rgb(12.941177%,12.941177%,12.941177%);stroke-opacity:1;stroke-miterlimit:4;" d="M 1203.664647 175.258863 L 400.119292 175.258863 C 355.714081 175.258863 319.811996 210.688553 319.811996 255.093763 L 319.811996 1615.121439 C 319.811996 1659.52665 355.714081 1694.956339 400.119292 1694.956339 L 1520.169872 1694.956339 C 1564.102686 1694.956339 1600.004772 1659.52665 1600.004772 1615.121439 L 1600.004772 538.531278 Z M 1203.664647 175.258863 " transform="matrix(0.00826902,0,0,0.00826902,0,0)"/>
<path style="fill:none;stroke-width:3;stroke-linecap:round;stroke-linejoin:round;stroke:rgb(12.941177%,12.941177%,12.941177%);stroke-opacity:1;stroke-miterlimit:4;" d="M 318.469588 -168.629428 L 423.334574 -72.513607 L 423.334574 -147.506445 C 423.334574 -159.255323 413.835481 -168.629428 402.211591 -168.629428 Z M 318.469588 -168.629428 " transform="matrix(0.031253,0,0,0.031253,0,6.719392)"/>
<path style=" stroke:none;fill-rule:nonzero;fill:url(#linear3);" d="M 5.125 5.664062 L 5.953125 10.625 L 6.613281 10.625 L 7.609375 6.160156 L 8.601562 10.625 L 9.261719 10.625 C 10.417969 8.640625 10.75 6.492188 10.75 4.839844 L 9.757812 5.003906 C 9.757812 6.492188 9.738281 8.308594 9.097656 9.800781 L 8.105469 5.167969 L 7.441406 5.335938 L 6.449219 9.800781 L 5.621094 5.832031 L 6.117188 5.167969 Z M 5.125 5.664062 "/>
<path style=" stroke:none;fill-rule:nonzero;fill:rgb(100%,100%,100%);fill-opacity:0.470588;" d="M 10.75 4.878906 L 9.757812 5.046875 C 9.757812 6.535156 9.738281 8.351562 9.097656 9.839844 L 8.105469 5.210938 L 7.441406 5.375 L 6.449219 9.839844 L 5.648438 6 L 5.621094 6.039062 L 6.449219 10.007812 L 7.441406 5.542969 L 8.105469 5.375 L 9.097656 10.007812 C 9.738281 8.515625 9.757812 6.699219 9.757812 5.210938 L 10.75 5.046875 C 10.75 4.988281 10.75 4.933594 10.75 4.878906 Z M 6.117188 5.210938 L 5.125 5.707031 L 5.152344 5.859375 L 5.921875 5.476562 Z M 6.117188 5.210938 "/>
<path style=" stroke:none;fill-rule:nonzero;fill:rgb(0%,0%,0%);fill-opacity:0.235294;" d="M 10.75 5.167969 L 10.746094 5.167969 C 10.703125 6.773438 10.34375 8.773438 9.261719 10.625 L 8.601562 10.625 L 7.609375 6.160156 L 6.613281 10.625 L 5.953125 10.625 L 5.175781 5.96875 L 5.125 5.996094 L 5.953125 10.957031 L 6.613281 10.957031 L 7.609375 6.492188 L 8.601562 10.957031 L 9.261719 10.957031 C 10.417969 8.972656 10.75 6.824219 10.75 5.167969 Z M 6.117188 5.5 L 5.722656 5.699219 L 5.621094 5.832031 L 5.675781 6.089844 Z M 6.117188 5.5 "/>
<path style="fill:none;stroke-width:3;stroke-linecap:round;stroke-linejoin:round;stroke:rgb(12.941177%,12.941177%,12.941177%);stroke-opacity:1;stroke-miterlimit:4;" d="M 163.98434 -33.767307 L 190.48181 124.967535 L 211.604793 124.967535 L 243.476749 -17.893823 L 275.223717 124.967535 L 296.3467 124.967535 C 333.343167 61.473598 343.967153 -7.269837 343.967153 -60.139788 L 312.220184 -54.89029 C 312.220184 -7.269837 311.595244 50.849613 291.097202 98.595053 L 259.350233 -49.640791 L 238.102262 -44.266304 L 206.355294 98.595053 L 179.857824 -28.39282 L 195.731309 -49.640791 Z M 163.98434 -33.767307 " transform="matrix(0.031253,0,0,0.031253,0,6.719392)"/>
</g>
</svg>
